X: 252
T:Rattlebones
% Nottingham Music Database
S:Upton, via EF
M:6/8
K:G
P:A
d/2d/2|"G"dBB BAG|"D"AGA "Em"BGE|"G"DGG GBd|"C"edB "D"Add|
"Em"dBB BAG|"D"AGA "Em"BGE|"G"DGG GAB|"D7"AGF "G"G2:|
P:B
B/2A/2|"G"GBd g2d|"C"edB "D7"BAG|"G"GBd g2d|"C"ed"c#"B "D"A2-"d#"A|
"Em"GBd g2d|"G"edB ABd|"C"ege "G"dBG|"D7"AGA "G"G2:|<end>
<start>
